X: 20021
T: Jimmy Doyle's
R: polka
M: 2/4
K: Dmajor
|:dc/d/ ed|=cA A2|dc/d/ ef|g2 fe|
d2 e/f/e/d/|=cA A2|f/g/a ge|d2 d2:|
|:f>e fd|g>f ge|f>e fa|ge =ce|
f2 f/e/d/f/|g>f ge|fa ge|d2 d2:|

